X:565
T:J.D. McLennan's Reel 
C:Joe Buchanan's Scottish Tome - Page 149.2
I:149 2
R:Reel
Z:Carl Allison
L:1/8
M:4/4
K:D
|:"Bm"d2 Bd "A7"BAAB | "D" dAde "A7"fe[Ae]g | "D" faef "Bm"defg | "Em" afed "A7"fe[Ae]f |
"Bm"d2 Bd "A7"BAAB | "D" dAde "A7"fe[Ae]g | "D" faef "Bm"defg | "A7" afeg "D"fd [Ad]2 :|
|:"Bm"b2 [da]2 "A7"feef | "D" d2 [Ad]2 "A7"BAAB | "D" dAde "Bm"defg | "Em" agfe "A7"fe [Ae]2 |
"Bm"b2 [da]2 "A7"feef | "Bm" d2 [Ad]2 "A7"BAAB | "D" dAde "Bm"defg | "A7" afeg "D"fd [Ae]2 :|

